public/svg/euro.svg

<?xml version="1.0" encoding="UTF-8"?>
<svg width="28px" height="26px" viewBox="0 0 28 26" version="1.1" xmlns="http://www.w3.org/2000/svg" xmlns:xlink="http://www.w3.org/1999/xlink">
    <title>euro</title>
    <defs>
        <linearGradient x1="50%" y1="0%" x2="50%" y2="100%" id="linearGradient-1">
            <stop stop-color="#4DBAED" offset="0%"></stop>
            <stop stop-color="#5C6DDD" offset="100%"></stop>
        </linearGradient>
        <linearGradient x1="50%" y1="0%" x2="50%" y2="100%" id="linearGradient-2">
            <stop stop-color="#4DBAED" offset="0%"></stop>
            <stop stop-color="#5C6DDD" offset="100%"></stop>
        </linearGradient>
    </defs>
    <g id="Page-1" stroke="none" stroke-width="1" fill="none" fill-rule="evenodd">
        <g id="workers-desktop" transform="translate(-1009.000000, -647.000000)" fill-rule="nonzero">
            <g id="euro" transform="translate(1009.500000, 647.000000)">
                <path d="M13.5,0 C6.332125,0 0.5,5.832125 0.5,13 C0.5,20.167875 6.332125,26 13.5,26 C20.667875,26 26.5,20.167875 26.5,13 C26.5,5.832125 20.667875,0 13.5,0 Z M13.5,24.375 C7.2275,24.375 2.125,19.2725 2.125,13 C2.125,6.7275 7.2275,1.625 13.5,1.625 C19.7725,1.625 24.875,6.7275 24.875,13 C24.875,19.2725 19.7725,24.375 13.5,24.375 Z" id="Shape" fill="url(#linearGradient-1)"></path>
                <path d="M17.1762755,17.57975 C16.5467592,18.02425 15.8529374,18.25 15.1151172,18.25 C13.5565565,18.25 12.2061424,17.186 11.4733989,15.625 L14.268993,15.625 C14.7360535,15.625 15.1151172,15.233 15.1151172,14.75 C15.1151172,14.267 14.7360535,13.875 14.268993,13.875 L10.9555709,13.875 C10.9166492,13.58975 10.8844965,13.29925 10.8844965,13 C10.8844965,12.70075 10.9166492,12.41025 10.9555709,12.125 L15.1151172,12.125 C15.5821777,12.125 15.9612413,11.733 15.9612413,11.25 C15.9612413,10.767 15.5821777,10.375 15.1151172,10.375 L11.4733989,10.375 C12.2061424,8.814 13.5565565,7.75 15.1151172,7.75 C15.8529374,7.75 16.5467592,7.97575 17.1762755,8.42025 C17.5621081,8.6915 18.0900896,8.59175 18.3523881,8.191 C18.6163788,7.792 18.5165362,7.24775 18.1307036,6.97475 C17.227043,6.33775 16.1846181,6 15.1151172,6 C12.6359735,6 10.5138941,7.81475 9.6322328,10.375 L8.34612413,10.375 C7.87906361,10.375 7.5,10.767 7.5,11.25 C7.5,11.733 7.87906361,12.125 8.34612413,12.125 L9.26670718,12.125 C9.23624671,12.4155 9.19224826,12.70075 9.19224826,13 C9.19224826,13.29925 9.23624671,13.5845 9.26670718,13.875 L8.34612413,13.875 C7.87906361,13.875 7.5,14.267 7.5,14.75 C7.5,15.233 7.87906361,15.625 8.34612413,15.625 L9.6322328,15.625 C10.5138941,18.18525 12.6359735,20 15.1151172,20 C16.1846181,20 17.227043,19.66225 18.1307036,19.02525 C18.5165362,18.75225 18.6163788,18.208 18.3523881,17.809 C18.0900896,17.41 17.5621081,17.3085 17.1762755,17.57975 Z" id="Path" fill="url(#linearGradient-2)"></path>
            </g>
        </g>
    </g>
</svg>

<?xml version="1.0" encoding="utf-8"?>
<!-- Generator: Adobe Illustrator 24.0.3, SVG Export Plug-In . SVG Version: 6.00 Build 0)  -->
<svg version="1.1" id="Calque_1" xmlns="http://www.w3.org/2000/svg" xmlns:xlink="http://www.w3.org/1999/xlink" x="0px" y="0px"
	 viewBox="0 0 28 26" style="enable-background:new 0 0 28 26;" xml:space="preserve">
<style type="text/css">
	.st0{fill:url(#Shape_1_);stroke:#FFFFFF;stroke-width:0.25;stroke-miterlimit:10;}
	.st1{fill:url(#Path_1_);stroke:#FFFFFF;stroke-width:0.25;stroke-miterlimit:10;}
</style>
<title>euro</title>
<g id="Page-1">
	<g id="workers-desktop" transform="translate(-1009.000000, -647.000000)">
		<g id="euro" transform="translate(1009.500000, 647.000000)">
			
				<linearGradient id="Shape_1_" gradientUnits="userSpaceOnUse" x1="-122.1154" y1="300.3525" x2="-122.1154" y2="299.3525" gradientTransform="matrix(26 0 0 -26 3188.5 7809.1655)">
				<stop  offset="0" style="stop-color:#4DBAED"/>
				<stop  offset="1" style="stop-color:#5C6DDD"/>
			</linearGradient>
			<path id="Shape" class="st0" d="M13.5,0c-7.2,0-13,5.8-13,13s5.8,13,13,13s13-5.8,13-13S20.7,0,13.5,0z M13.5,24.4
				C7.2,24.4,2.1,19.3,2.1,13S7.2,1.6,13.5,1.6S24.9,6.7,24.9,13S19.8,24.4,13.5,24.4z"/>
			
				<linearGradient id="Path_1_" gradientUnits="userSpaceOnUse" x1="-115.4545" y1="290.9899" x2="-115.4545" y2="289.9899" gradientTransform="matrix(11 0 0 -14 1283 4079.8584)">
				<stop  offset="0" style="stop-color:#4DBAED"/>
				<stop  offset="1" style="stop-color:#5C6DDD"/>
			</linearGradient>
			<path id="Path" class="st1" d="M17.2,17.6c-0.6,0.4-1.3,0.7-2.1,0.7c-1.6,0-2.9-1.1-3.6-2.6h2.8c0.5,0,0.8-0.4,0.8-0.9
				s-0.4-0.9-0.8-0.9H11c0-0.3-0.1-0.6-0.1-0.9s0-0.6,0.1-0.9h4.2c0.5,0,0.8-0.4,0.8-0.9s-0.4-0.9-0.8-0.9h-3.6
				c0.7-1.6,2.1-2.6,3.6-2.6c0.7,0,1.4,0.2,2.1,0.7c0.4,0.3,0.9,0.2,1.2-0.2c0.3-0.4,0.2-0.9-0.2-1.2c-0.9-0.6-1.9-1-3-1
				c-2.5,0-4.6,1.8-5.5,4.4H8.3c-0.5,0-0.8,0.4-0.8,0.9s0.4,0.9,0.8,0.9h0.9c0,0.3-0.1,0.6-0.1,0.9s0,0.6,0.1,0.9H8.3
				c-0.5,0-0.8,0.4-0.8,0.9s0.4,0.9,0.8,0.9h1.3c0.9,2.6,3,4.4,5.5,4.4c1.1,0,2.1-0.3,3-1c0.4-0.3,0.5-0.8,0.2-1.2
				C18.1,17.4,17.6,17.3,17.2,17.6z"/>
		</g>
	</g>
</g>
</svg>
